X:12
T:Long Long Ago
T:Cluster of Nuts
M:4/4
L:1/8
K:G
P:A
G2 GA B2 Bc | d2 ed B4| d2 cB A4| c2 BA G4|!
G2 GA B2 Bc | d2 ed B4| d2 cBA2 BA| G8:|!
P:B
|: d2 cB A2 DD| c2 BA G4 | d2 cB ADFA| e2 ed B4|!
G2 GA B2 Bc | d2 ed B4|d2 cB A2 BA| G8:|

